assets/icons/comment.svg

<svg width="24" height="24" viewBox="0 0 24 24" fill="none" xmlns="http://www.w3.org/2000/svg">
<path fill-rule="evenodd" clip-rule="evenodd" d="M21.2959 20.8165L20.2351 16.8602C20.1743 16.6385 20.2047 16.3994 20.309 16.1907C21.2351 14.3342 21.5438 12.117 20.9742 9.80402C20.2003 6.67374 17.757 4.16081 14.6354 3.33042C13.7833 3.10869 12.9442 3 12.1312 3C6.29665 3 1.74035 8.47365 3.31418 14.5647C4.04458 17.3819 7.05314 20.2992 9.88344 20.9861C10.6486 21.173 11.4008 21.26 12.1312 21.26C13.7006 21.26 15.1701 20.8557 16.4614 20.1601C16.6049 20.0818 16.7657 20.0383 16.9222 20.0383C17.0005 20.0383 17.0787 20.047 17.157 20.0688L21.009 21.0991C21.0307 21.1035 21.0525 21.1078 21.0699 21.1078C21.2177 21.1078 21.3351 20.9687 21.2959 20.8165ZM19.0178 17.1863L19.6178 19.4253L17.4831 18.8558C17.3005 18.8079 17.1135 18.7819 16.9222 18.7819C16.557 18.7819 16.1875 18.8775 15.8571 19.0558C14.6963 19.6818 13.4441 19.9992 12.1312 19.9992C11.4834 19.9992 10.8269 19.9166 10.1791 19.7601C7.78354 19.1775 5.14453 16.6037 4.53586 14.2473C3.90111 11.7865 4.40109 9.26057 5.90536 7.31719C7.40964 5.3738 9.6791 4.26081 12.1312 4.26081C12.8529 4.26081 13.5876 4.35646 14.3137 4.5521C16.9961 5.26511 19.0786 7.39544 19.7525 10.1084C20.2264 12.0213 20.0308 13.9299 19.183 15.6298C18.9395 16.1168 18.8787 16.6689 19.0178 17.1863Z" fill="black" stroke="black" stroke-width="0.7"/>
</svg>

<svg xmlns="http://www.w3.org/2000/svg" width="24" height="24" fill="none"><path fill="#000" fill-rule="evenodd" stroke="#000" stroke-width=".7" d="m21.296 20.817-1.06-3.957a.945.945 0 0 1 .073-.67c.926-1.856 1.235-4.073.665-6.386-.774-3.13-3.217-5.643-6.339-6.474A9.941 9.941 0 0 0 12.131 3C6.297 3 1.741 8.474 3.314 14.565c.73 2.817 3.74 5.734 6.57 6.421a9.457 9.457 0 0 0 2.247.274c1.57 0 3.04-.404 4.33-1.1a.973.973 0 0 1 .461-.122c.078 0 .157.009.235.03l3.852 1.031a.233.233 0 0 0 .287-.283Zm-2.278-3.63.6 2.238-2.135-.57a2.203 2.203 0 0 0-.56-.073c-.366 0-.735.096-1.066.274a7.765 7.765 0 0 1-3.726.943 8.329 8.329 0 0 1-1.952-.239c-2.395-.583-5.034-3.156-5.643-5.513-.635-2.46-.135-4.986 1.37-6.93a7.821 7.821 0 0 1 6.225-3.056c.722 0 1.457.095 2.183.291a7.641 7.641 0 0 1 5.439 5.556c.473 1.913.278 3.822-.57 5.522a2.2 2.2 0 0 0-.165 1.556Z" clip-rule="evenodd"/></svg>
